storage/app/icons/phosphoricons/thin/chalkboard-simple-thin.svg

<svg xmlns="http://www.w3.org/2000/svg" fill="currentColor" viewBox="0 0 256 256"><path d="M240 196h-12v-28a4 4 0 0 0-4-4h-64a4 4 0 0 0-4 4v28H36V56a4 4 0 0 1 4-4h176a4 4 0 0 1 4 4v80a4 4 0 0 0 8 0V56a12 12 0 0 0-12-12H40a12 12 0 0 0-12 12v140H16a4 4 0 0 0 0 8h224a4 4 0 0 0 0-8m-76-24h56v24h-56Z"/></svg>

<svg xmlns="http://www.w3.org/2000/svg" viewBox="0 0 256 256" fill="currentColor"><path d="M240,196H228V168a4,4,0,0,0-4-4H160a4,4,0,0,0-4,4v28H36V56a4,4,0,0,1,4-4H216a4,4,0,0,1,4,4v80a4,4,0,0,0,8,0V56a12,12,0,0,0-12-12H40A12,12,0,0,0,28,56V196H16a4,4,0,0,0,0,8H240a4,4,0,0,0,0-8Zm-76-24h56v24H164Z"/></svg>
